icons/walker.svg

<?xml version="1.0" encoding="UTF-8" standalone="no"?>
<!-- Created with Sodipodi ("http://www.sodipodi.com/") -->

<svg
   xmlns:dc="http://purl.org/dc/elements/1.1/"
   xmlns:cc="http://creativecommons.org/ns#"
   xmlns:rdf="http://www.w3.org/1999/02/22-rdf-syntax-ns#"
   xmlns:svg="http://www.w3.org/2000/svg"
   xmlns="http://www.w3.org/2000/svg"
   xmlns:sodipodi="http://sodipodi.sourceforge.net/DTD/sodipodi-0.dtd"
   xmlns:inkscape="http://www.inkscape.org/namespaces/inkscape"
   version="1.0"
   x="0"
   y="0"
   width="109.13385"
   height="109.13385"
   id="svg644"
   xml:space="preserve"
   sodipodi:version="0.32"
   inkscape:version="0.91 r13725"
   sodipodi:docname="walker.svg"><metadata
     id="metadata10"><rdf:RDF><cc:Work
         rdf:about=""><dc:format>image/svg+xml</dc:format><dc:type
           rdf:resource="http://purl.org/dc/dcmitype/StillImage" /></cc:Work></rdf:RDF></metadata><defs
     id="defs8" /><sodipodi:namedview
     inkscape:window-height="1231"
     inkscape:window-width="1996"
     inkscape:pageshadow="2"
     inkscape:pageopacity="0.0"
     borderopacity="1.0"
     bordercolor="#666666"
     pagecolor="#ffffff"
     id="base"
     inkscape:zoom="3.6927131"
     inkscape:cx="6.4992861"
     inkscape:cy="54.566925"
     inkscape:window-x="0"
     inkscape:window-y="36"
     inkscape:current-layer="layer5"
     showgrid="false"
     showguides="true"
     inkscape:guide-bbox="true"
     inkscape:window-maximized="0"><sodipodi:guide
       position="-194.97859,203.1027"
       orientation="-0.70710678,0.70710678"
       id="guide4927" /><sodipodi:guide
       position="0,0"
       orientation="0,109.13385"
       id="guide4931" /><sodipodi:guide
       position="109.13385,0"
       orientation="-109.13385,0"
       id="guide4933" /><sodipodi:guide
       position="109.13385,109.13385"
       orientation="0,-109.13385"
       id="guide4935" /><sodipodi:guide
       position="0,109.13385"
       orientation="109.13385,0"
       id="guide4937" /></sodipodi:namedview><rect
     y="0.542045"
     x="1.3540177"
     height="108.321"
     width="108.86304"
     id="rect4911"
     style="font-size:medium;opacity:1;fill:#000000;fill-opacity:1;stroke:#ffffff;stroke-width:0.43999919;stroke-linecap:round;stroke-linejoin:round;stroke-miterlimit:4;stroke-dasharray:none;stroke-opacity:1"
     ry="14.1" /><g
     inkscape:groupmode="layer"
     id="layer4"
     inkscape:label="background"
     style="display:none" /><g
     inkscape:groupmode="layer"
     id="layer5"
     inkscape:label="foreground"><g
       style="font-size:medium;fill:#ffffff"
       id="g4906"
       transform="matrix(0.87923235,0,0,0.90196826,12.653107,6.9502103)"><path
         inkscape:connector-curvature="0"
         d="M 79.150393,99.126954 70.320632,61.112815 C 64.578219,36.082914 66.948473,46.174881 64.064017,37.246798 61.179561,28.318715 59.67262,28.398704 54.23234,23.326951 l -12.63562,3.610286 c -4.47511,6.103296 -7.37075,14.269702 -11.84586,17.536233 -3.50988,2.234976 -5.052198,1.633187 -9.615058,2.062953 l -0.0204,-8.252261 -3.659261,0 -0.05673,60.734691 3.599681,0.08519 L 20.1154,54.78883 c 7.10751,-0.172012 9.63546,-0.601778 14.11057,-1.289433 4.29959,-1.375455 6.75652,-4.040197 10.26639,-6.44705 l 1.812088,12.40015 c 0,0 -17.498382,39.428258 -15.500618,39.692323 4.754867,0.6285 10.731675,0.251933 10.731675,0.251933 0,0 12.386157,-31.690957 16.543407,-31.63244 3.904212,0.05852 10.713244,31.362641 10.713244,31.362641 l 10.358237,0 z"
         style="fill:#ffffff;fill-rule:evenodd"
         id="path782"
         sodipodi:nodetypes="cczccccccccccccsczcc" /><ellipse
         cx="356.20523"
         cy="165.82654"
         rx="94.575562"
         ry="94.575569"
         transform="matrix(0.107441,0,0,0.103247,7.37939,-0.366581)"
         style="fill:#ffffff;fill-rule:evenodd"
         id="path783" /><rect
         style="fill:#ffffff;fill-opacity:1;stroke:none;stroke-width:3;stroke-linecap:butt;stroke-linejoin:miter;stroke-miterlimit:4;stroke-dasharray:none;stroke-opacity:1"
         id="rect1309"
         width="13.658452"
         height="38.561943"
         x="46.707108"
         y="38.490395"
         transform="matrix(0.951509,-0.307622,0.310069,0.950714,0,0)" /></g></g></svg>

<?xml version="1.0" encoding="UTF-8" standalone="no"?>
<!-- Created with Sodipodi ("http://www.sodipodi.com/") -->
<svg
   xmlns:dc="http://purl.org/dc/elements/1.1/"
   xmlns:cc="http://web.resource.org/cc/"
   xmlns:rdf="http://www.w3.org/1999/02/22-rdf-syntax-ns#"
   xmlns:svg="http://www.w3.org/2000/svg"
   xmlns="http://www.w3.org/2000/svg"
   xmlns:sodipodi="http://inkscape.sourceforge.net/DTD/sodipodi-0.dtd"
   xmlns:inkscape="http://www.inkscape.org/namespaces/inkscape"
   version="1.0"
   x="0"
   y="0"
   width="109.13385"
   height="109.13385"
   id="svg644"
   xml:space="preserve"
   sodipodi:version="0.32"
   inkscape:version="0.43"
   sodipodi:docname="trailhead.svg"
   sodipodi:docbase="/usr/share/qgis/svg/Garmin_Symbols"><metadata
     id="metadata10"><rdf:RDF><cc:Work
         rdf:about=""><dc:format>image/svg+xml</dc:format><dc:type
           rdf:resource="http://purl.org/dc/dcmitype/StillImage" /></cc:Work></rdf:RDF></metadata><defs
     id="defs8" /><sodipodi:namedview
     inkscape:window-height="683"
     inkscape:window-width="1024"
     inkscape:pageshadow="2"
     inkscape:pageopacity="0.0"
     borderopacity="1.0"
     bordercolor="#666666"
     pagecolor="#ffffff"
     id="base"
     inkscape:zoom="3.6927131"
     inkscape:cx="54.566925"
     inkscape:cy="54.566925"
     inkscape:window-x="0"
     inkscape:window-y="36"
     inkscape:current-layer="g668" /><g
     transform="matrix(1.070204,0,0,1.074902,-2.851691e-2,-4.370884)"
     style="font-size:12;"
     id="g668"><path
       d="M 79.150393,99.126954 L 70.320632,61.112815 C 64.578219,36.082914 66.948473,46.174881 64.064017,37.246798 C 61.179561,28.318715 59.67262,28.398704 54.23234,23.326951 L 41.59672,26.937237 C 37.12161,33.040533 34.22597,41.206939 29.75086,44.47347 C 26.24098,46.708446 24.698662,46.106657 20.135802,46.536423 L 20.1154,38.284162 L 16.456139,38.284162 L 16.39941,99.018853 L 19.999091,99.104044 L 20.1154,54.78883 C 27.22291,54.616818 29.75086,54.187052 34.22597,53.499397 C 38.52556,52.123942 40.98249,49.4592 44.49236,47.052347 L 46.304448,59.452497 C 46.304448,59.452497 28.806066,98.880755 30.80383,99.14482 C 35.558697,99.77332 41.535505,99.396753 41.535505,99.396753 C 41.535505,99.396753 53.921662,67.705796 58.078912,67.764313 C 61.983124,67.822829 68.792156,99.126954 68.792156,99.126954 L 79.150393,99.126954 z "
       style="fill-rule:evenodd"
       id="path782"
       sodipodi:nodetypes="cczccccccccccccsczcc" /><ellipse
       cx="356.20523"
       cy="165.82654"
       rx="94.575562"
       ry="94.575569"
       transform="matrix(0.107441,0,0,0.103247,7.37939,-0.366581)"
       style="fill-rule:evenodd"
       id="path783"
       sodipodi:cx="356.20523"
       sodipodi:cy="165.82654"
       sodipodi:rx="94.575562"
       sodipodi:ry="94.575569" /><rect
       style="fill:#000000;fill-opacity:1;stroke:none;stroke-width:3;stroke-linecap:butt;stroke-linejoin:miter;stroke-miterlimit:4;stroke-dasharray:none;stroke-opacity:1"
       id="rect1309"
       width="13.658452"
       height="38.561943"
       x="46.707108"
       y="38.490395"
       transform="matrix(0.951509,-0.307622,0.310069,0.950714,0,0)" /></g></svg>
